vinfonet2025/img/advantage.svg

<?xml version="1.0" encoding="UTF-8"?>
<!DOCTYPE svg PUBLIC "-//W3C//DTD SVG 1.1//EN" "http://www.w3.org/Graphics/SVG/1.1/DTD/svg11.dtd">
<svg xmlns="http://www.w3.org/2000/svg" version="1.1" width="512px" height="512px" style="shape-rendering:geometricPrecision; text-rendering:geometricPrecision; image-rendering:optimizeQuality; fill-rule:evenodd; clip-rule:evenodd" xmlns:xlink="http://www.w3.org/1999/xlink">
<g><path style="opacity:0.974" fill="#000000" d="M 243.5,20.5 C 289.525,17.7605 324.692,35.7605 349,74.5C 367,109.833 367,145.167 349,180.5C 324.714,219.394 289.548,237.227 243.5,234C 198.459,227.23 168.292,202.397 153,159.5C 140.241,105.886 156.741,64.0531 202.5,34C 215.46,26.9571 229.127,22.4571 243.5,20.5 Z M 253.5,60.5 C 256.505,60.253 259.005,61.253 261,63.5C 267.039,75.7445 273.206,87.9112 279.5,100C 293.42,102.608 307.42,104.942 321.5,107C 325.124,109.161 326.291,112.328 325,116.5C 315.304,126.53 305.304,136.197 295,145.5C 296.615,159.53 298.782,173.53 301.5,187.5C 301.011,193.082 298.011,195.249 292.5,194C 280.266,187.591 267.933,181.424 255.5,175.5C 243.067,181.424 230.734,187.591 218.5,194C 214.654,195.157 211.821,193.991 210,190.5C 211.892,175.48 213.892,160.48 216,145.5C 205.696,136.197 195.696,126.53 186,116.5C 184.709,112.328 185.876,109.161 189.5,107C 203.61,105.128 217.61,102.795 231.5,100C 237.794,87.9112 243.961,75.7445 250,63.5C 251.145,62.3636 252.312,61.3636 253.5,60.5 Z"/></g>
<g><path style="opacity:0.965" fill="#000000" d="M 95.5,205.5 C 98.6492,205.211 101.649,205.711 104.5,207C 121.333,223.833 138.167,240.667 155,257.5C 157,260.833 157,264.167 155,267.5C 137.833,284.667 120.667,301.833 103.5,319C 100.036,319.817 96.7024,319.483 93.5,318C 76.6667,301.167 59.8333,284.333 43,267.5C 40.9625,263.666 41.2959,259.999 44,256.5C 61.0617,239.271 78.2283,222.271 95.5,205.5 Z"/></g>
<g><path style="opacity:0.993" fill="#000000" d="M 204.5,247.5 C 238.502,247.333 272.502,247.5 306.5,248C 308.848,248.346 310.681,249.513 312,251.5C 312.667,329.833 312.667,408.167 312,486.5C 311.5,488.333 310.333,489.5 308.5,490C 273.167,490.667 237.833,490.667 202.5,490C 200.667,489.5 199.5,488.333 199,486.5C 198.333,408.167 198.333,329.833 199,251.5C 200.5,249.531 202.333,248.198 204.5,247.5 Z"/></g>
<g><path style="opacity:0.974" fill="#000000" d="M 387.5,290.5 C 403.503,290.333 419.503,290.5 435.5,291C 436.5,291.5 437.5,292 438.5,292.5C 449.879,308.036 460.212,324.202 469.5,341C 459.852,357.953 449.185,374.286 437.5,390C 429.072,391.122 420.572,391.622 412,391.5C 403.428,391.622 394.928,391.122 386.5,390C 376.277,376.109 366.443,361.942 357,347.5C 353.667,343.167 353.667,338.833 357,334.5C 366.955,319.555 377.122,304.889 387.5,290.5 Z"/></g>
<g><path style="opacity:0.986" fill="#000000" d="M 45.5,333.5 C 81.1682,333.333 116.835,333.5 152.5,334C 153.333,334.833 154.167,335.667 155,336.5C 156.657,386.084 156.99,435.75 156,485.5C 155.215,487.286 154.049,488.786 152.5,490C 116.833,490.667 81.1667,490.667 45.5,490C 44.6667,489.167 43.8333,488.333 43,487.5C 41.343,437.916 41.0096,388.25 42,338.5C 42.9973,336.677 44.1639,335.01 45.5,333.5 Z"/></g>
<g><path style="opacity:0.982" fill="#000000" d="M 358.5,404.5 C 394.168,404.333 429.835,404.5 465.5,405C 467.049,406.214 468.215,407.714 469,409.5C 469.981,435.587 469.648,461.587 468,487.5C 467.167,488.333 466.333,489.167 465.5,490C 429.833,490.667 394.167,490.667 358.5,490C 356.951,488.786 355.785,487.286 355,485.5C 354.333,460.167 354.333,434.833 355,409.5C 355.997,407.677 357.164,406.01 358.5,404.5 Z"/></g>
</svg>

<svg xmlns="http://www.w3.org/2000/svg" width="512" height="512" style="shape-rendering:geometricPrecision;text-rendering:geometricPrecision;image-rendering:optimizeQuality;fill-rule:evenodd;clip-rule:evenodd"><path d="M243.5 20.5q69.038-4.11 105.5 54 27 53 0 106-36.428 58.34-105.5 53.5-67.562-10.155-90.5-74.5Q133.862 79.08 202.5 34q19.44-10.564 41-13.5m10 40q4.507-.37 7.5 3a1874 1874 0 0 0 18.5 36.5q20.88 3.913 42 7 5.436 3.242 3.5 9.5a614 614 0 0 1-30 29 548 548 0 0 0 6.5 42q-.733 8.373-9 6.5a1091 1091 0 0 0-37-18.5 1091 1091 0 0 0-37 18.5q-5.769 1.736-8.5-3.5 2.838-22.53 6-45a614 614 0 0 1-30-29q-1.936-6.258 3.5-9.5a639 639 0 0 0 42-7A1874 1874 0 0 0 250 63.5a30 30 0 0 1 3.5-3" style="opacity:.974"/><path d="M95.5 205.5q4.724-.433 9 1.5l50.5 50.5q3 5 0 10L103.5 319q-5.196 1.225-10-1L43 267.5q-3.056-5.751 1-11a3701 3701 0 0 1 51.5-51" style="opacity:.965"/><path d="M204.5 247.5q51.003-.25 102 .5 3.522.52 5.5 3.5a13800 13800 0 0 1 0 235q-.75 2.75-3.5 3.5-53 1-106 0-2.75-.75-3.5-3.5a13800 13800 0 0 1 0-235q2.25-2.953 5.5-4" style="opacity:.993"/><path d="M387.5 290.5q24.005-.25 48 .5l3 1.5a453 453 0 0 1 31 48.5 480 480 0 0 1-32 49 174 174 0 0 1-25.5 1.5 174 174 0 0 1-25.5-1.5 934 934 0 0 1-29.5-42.5q-5-6.5 0-13a1438 1438 0 0 1 30.5-44" style="opacity:.974"/><path d="M45.5 333.5q53.502-.25 107 .5l2.5 2.5q2.485 74.375 1 149a11.53 11.53 0 0 1-3.5 4.5 2861 2861 0 0 1-107 0l-2.5-2.5a2795 2795 0 0 1-1-149 27.3 27.3 0 0 1 3.5-5" style="opacity:.986"/><path d="M358.5 404.5q53.502-.25 107 .5a11.53 11.53 0 0 1 3.5 4.5 771 771 0 0 1-1 78l-2.5 2.5a2861 2861 0 0 1-107 0 11.53 11.53 0 0 1-3.5-4.5 1444 1444 0 0 1 0-76 27.2 27.2 0 0 1 3.5-5" style="opacity:.982"/></svg>
